packages/icons/svg/Fill/flash-off.svg

<svg fill="none" height="24" viewBox="0 0 24 24" width="24" xmlns="http://www.w3.org/2000/svg"><path clip-rule="evenodd" d="m17.3281 14.4999 2.503-3.744c.205-.307.225-.701.051-1.02696-.174-.326-.513-.529-.882-.529h-5.886l.769-7.093c.049-.457-.22-.889-.653-1.046-.433-.159002-.917 0-1.173.383l-3.11897 4.666zm-10.65622-4.99983-2.503 3.74403c-.205.307-.225.701-.051 1.027s.513.529.882.529h5.88602l-.769 7.093c-.049.457.22.889.653 1.046.112.041.227.061.341.061.327 0 .642-.16.832-.444l3.119-4.666zm-1.96489-6.20736 16.00001 15.99999c.391.391.391 1.023 0 1.414-.195.195-.451.293-.707.293s-.512-.098-.707-.293l-16.00001-15.99999c-.391-.391-.391-1.023 0-1.414s1.023-.391 1.414 0z" fill="#6b7280" fill-rule="evenodd"/></svg>

<svg width="24" height="24" viewBox="0 0 24 24" fill="none" xmlns="http://www.w3.org/2000/svg">
<g id="Icon/Fill/flash-off">
<path id="Mask" fill-rule="evenodd" clip-rule="evenodd" d="M17.3281 14.5001L19.8311 10.7561C20.0361 10.4491 20.0561 10.0551 19.8821 9.72909C19.7081 9.40309 19.3691 9.20009 19.0001 9.20009H13.1141L13.8831 2.10709C13.9321 1.65009 13.6631 1.21809 13.2301 1.06109C12.7971 0.90209 12.3131 1.06109 12.0571 1.44409L8.93811 6.11009L17.3281 14.5001ZM6.67191 9.50009L4.16891 13.2441C3.96391 13.5511 3.94391 13.9451 4.11791 14.2711C4.29191 14.5971 4.63091 14.8001 4.99991 14.8001H10.8859L10.1169 21.8931C10.0679 22.3501 10.3369 22.7821 10.7699 22.9391C10.8819 22.9801 10.9969 23.0001 11.1109 23.0001C11.4379 23.0001 11.7529 22.8401 11.9429 22.5561L15.0619 17.8901L6.67191 9.50009ZM4.70701 3.29299L20.707 19.293C21.098 19.684 21.098 20.316 20.707 20.707C20.512 20.902 20.256 21 20 21C19.744 21 19.488 20.902 19.293 20.707L3.29301 4.70699C2.90201 4.31599 2.90201 3.68399 3.29301 3.29299C3.68401 2.90199 4.31601 2.90199 4.70701 3.29299Z" fill="#000000"/>
</g>
</svg>
